.local/share/icons/Gruvbox-Plus-Dark/panel/24/zeal-tray.svg

<svg xmlns="http://www.w3.org/2000/svg" width="24" height="24" version="1.1">
 <defs>
  <style id="current-color-scheme" type="text/css">
   .ColorScheme-Text { color:#ebdbb2; } .ColorScheme-Highlight { color:#458588; }
  </style>
 </defs>
 <path style="opacity:0.3;fill:currentColor" class="ColorScheme-Text" d="M 5.8854167,4.0000003 C 5.3948958,4.0000003 5,4.3568003 5,4.8000003 L 5,19.200001 C 5,19.6432 5.3948958,20 5.8854167,20 l 2.1145831,0 0,-15.9999997 z"/>
 <path style="fill:currentColor" class="ColorScheme-Text" d="M 7.9999998,4.0000002 7.9999998,20 18.125,20 C 18.60975,20 19,19.642418 19,19.199219 L 19,4.8007815 c 0,-0.4432 -0.39025,-0.8007813 -0.875,-0.8007813 l -6.134765,0 -3.9902352,0 z m 2.5000002,3 6,0 A 0.50005,0.50005 0 0 1 16.916016,7.777344 L 11.433594,16 16.5,16 a 0.50005,0.50005 0 1 1 0,1 l -6,0 a 0.50005,0.50005 0 0 1 -0.416015,-0.777344 l 5.482421,-8.2226558 -5.066406,0 a 0.50005,0.50005 0 1 1 0,-1 z"/>
</svg>

<svg width="24" height="24" version="1.1" xmlns="http://www.w3.org/2000/svg">
  <defs>
    <style id="current-color-scheme" type="text/css">.ColorScheme-Text { color:#ebdbb2; } .ColorScheme-Highlight { color:#458588; } .ColorScheme-NeutralText { color:#fe8019; } .ColorScheme-PositiveText { color:#689d6a; } .ColorScheme-NegativeText { color:#fb4934; }</style>
  </defs>
  <path class="ColorScheme-Text" d="m5.885 4c-0.4905 0-0.8854 0.3568-0.8854 0.8v14.4c0 0.4432 0.3949 0.8 0.8854 0.8h2.115v-16z" fill="currentColor" opacity=".3"/>
  <path class="ColorScheme-Text" d="m8 4v16h10.13c0.4848 0 0.875-0.3576 0.875-0.8008v-14.4c0-0.4432-0.3902-0.8008-0.875-0.8008h-6.135-3.99zm2.5 3h6a0.5 0.5 0 0 1 0.416 0.7773l-5.482 8.223h5.066a0.5 0.5 0 1 1 0 1h-6a0.5 0.5 0 0 1-0.416-0.7773l5.482-8.223h-5.066a0.5 0.5 0 1 1 0-1z" fill="currentColor"/>
</svg>
